X:4244
T:Miss Jamieson's Favorite
O:england
M:6/8
L:1/8
R:Air
C:C. Grant
K:A
"A"E>AB c2E|"D"F2E F A2|"A"E>Ac "F#m"e2f|"D"e2c "B"B2 c|"A"E>AB c2E|
"D"F2E F A2|"A"EAB "F#m"c<ef|"E"c2 B "A"A3||"A"e2A "D"f2A|"A"e2 E "D"F A
2|
"A"e2A "F#m"f2A|"D"a2 c "E"B2c|"A"e>AA ABc|"D"F2 E "Bm"F A2|
"A"EAB "F#m"c<ef|"E"c2 B "A"A3||


